X: 984
T: Tucker's Barn P.2
C:Old Time
B: jims roots
M:C|
L:1/8
Q: 1/4=100
K:D
V:1 
%N:TablEdited by Jim Kendrick
(3ABc |:"D"d2f2 "A"edBA |"D"d2f2 "A"e2 (3ABc | [M:3/2]"D"d2ef gfed dBAF | [M:C|]"G"G2[G,2G2]-[G,2G2] (3ABc |
"D"d2f2 "A"edBA |"D"d2f2 "A"A2 (3ABc | [M:3/2]"D"d2ef gfed dBAF |[M:C|]"G"G2[G,2G2]-[G,2G2] ef||
"G"G2 GF EDEF | G2B2 =cBAG | "D"FGAF D2DE | F2A2 AdBA |
"G"GAGF EDEF | G2B2 =cBAG | [1 "D"FGAF D2 (3ABc:|[2 "D"FGAF D4|]
V:P:B Part
"G"g2e2 dBAF | GAGF EDEF | G2 B2 =cBAG | "D"FGAF D2DE | F2A2  AdBA |
% abcbook-tune_id 6298c297ed1a61eaccffec7b


% abcbook-boost 0
% abcbook-tablature 
% abcbook-transpose 
% abcbook-lastupdated 1654178456323
% abcbook-soundfonts 
% abcbook-repeats 1


